ligands/bidentate/dppe-1,2-bis(diphenylphosphino)ethane.svg

<svg height="256" viewBox="0 0 256 256" width="256" xmlns="http://www.w3.org/2000/svg"><path d="m0 0h256v256h-256z" fill="#fff"/><ellipse cx="121.6" cy="127.8" fill="#ff7f7f" fill-rule="evenodd" rx="9.7" ry="9.7" stroke="#ff7f7f"/><g fill="none" stroke="#000" stroke-width="2"><path d="m112.5 85.4 21.2 12.2"/><path d="m143.6 94.7 10.1-22.7"/><path d="m153.7 72 32.3-3.4"/><path d="m156 66.9 26.7-2.8"/><path d="m186 68.6 13.1-29.6"/><path d="m199.1 39-19.1-26.2"/><path d="m193.5 39.6-15.7-21.7"/><path d="m180 12.8-32.2 3.4"/><path d="m147.8 16.2-13.1 29.6"/><path d="m151.1 20.7-10.8 24.5"/><path d="m147.5 103.9 23.9 7.7"/><path d="m171.4 111.6v32.4"/><path d="m171.4 144-23.9 7.8"/><path d="m145.4 164.8 8.4 18.8"/><path d="m153.8 183.6-19 26.2"/><path d="m156.1 188.7-15.7 21.7"/><path d="m134.8 209.8 13.2 29.6"/><path d="m148 239.4 32.2 3.4"/><path d="m151.3 234.9 26.6 2.8"/><path d="m180.2 242.8 19-26.2"/><path d="m199.2 216.6-13.2-29.6"/><path d="m193.6 216-10.9-24.5"/><path d="m133.7 158-21.1 12.3"/><path d="m112.6 170.3-28.1-16.2"/><path d="m107.7 173.1-23.2-13.4"/><path d="m84.5 154.1-28 16.2"/><path d="m56.5 170.3v32.4"/><path d="m61.3 173.1v26.8"/><path d="m56.5 202.7 28.1 16.2"/><path d="m84.6 218.9 28-16.2"/><path d="m84.6 213.3 23.1-13.4"/><path d="m112.5 85.4v-32.4"/><path d="m107.7 82.6-.1-26.7"/><path d="m112.5 53-28.1-16.1"/><path d="m84.4 36.9-28 16.2"/><path d="m84.4 42.5-23.2 13.4"/><path d="m56.4 53.1v32.4"/><path d="m56.4 85.5 28.1 16.2"/><path d="m61.3 82.7 23.2 13.4"/><path d="m84.5 101.7 28-16.3"/><path d="m134.7 45.8 19 26.2"/><path d="m186 187-32.2-3.4"/><path d="m112.6 202.7v-32.4"/><path d="m135.6 147.1-7.1-9.8"/><path d="m133.7 111.1-7.1 9.8"/><path d="m184.3 68.8 1.7-.2.6-1.5" stroke-miterlimit="10"/><path d="m198.4 40.5.7-1.5-1-1.3" stroke-miterlimit="10"/><path d="m181 14.1-1-1.3-1.6.2" stroke-miterlimit="10"/><path d="m149.4 16-1.6.2-.6 1.5" stroke-miterlimit="10"/><path d="m135.3 44.3-.6 1.5.9 1.3" stroke-miterlimit="10"/><path d="m170.2 111.2 1.2.4v1.6" stroke-miterlimit="10"/><path d="m171.4 142.4v1.6l-1.2.4" stroke-miterlimit="10"/><path d="m135.7 208.5-.9 1.3.6 1.5" stroke-miterlimit="10"/><path d="m147.3 238 .7 1.4 1.6.2" stroke-miterlimit="10"/><path d="m178.6 242.6 1.6.2.9-1.3" stroke-miterlimit="10"/><path d="m198.3 217.9.9-1.3-.6-1.5" stroke-miterlimit="10"/><path d="m186.7 188.5-.7-1.5-1.6-.2" stroke-miterlimit="10"/><path d="m85.9 154.9-1.4-.8-1.4.8" stroke-miterlimit="10"/><path d="m57.9 169.5-1.4.8v1.6" stroke-miterlimit="10"/><path d="m56.5 201.1v1.6l1.4.8" stroke-miterlimit="10"/><path d="m83.2 218.1 1.4.8 1.4-.8" stroke-miterlimit="10"/><path d="m111.2 203.5 1.4-.8v-1.7" stroke-miterlimit="10"/><path d="m112.5 54.7v-1.7l-1.4-.8" stroke-miterlimit="10"/><path d="m85.8 37.7-1.4-.8-1.4.8" stroke-miterlimit="10"/><path d="m57.8 52.3-1.4.8v1.6" stroke-miterlimit="10"/><path d="m56.4 83.9v1.6l1.4.8" stroke-miterlimit="10"/><path d="m83.1 100.9 1.4.8 1.4-.8" stroke-miterlimit="10"/></g><text font-family="sans-serif" font-size="19" x="134.7" y="111.3">P</text><text font-family="sans-serif" font-size="19" x="134.8" y="163.8">P</text><text x="115.7" y="137.6"/></svg>

<?xml version='1.0' encoding='iso-8859-1'?>
<svg version='1.1' baseProfile='full'
              xmlns='http://www.w3.org/2000/svg'
                      xmlns:rdkit='http://www.rdkit.org/xml'
                      xmlns:xlink='http://www.w3.org/1999/xlink'
                  xml:space='preserve'
width='256px' height='256px' viewBox='0 0 256 256'>
<!-- END OF HEADER -->
<rect style='opacity:1.0;fill:#FFFFFF;stroke:none' width='256.0' height='256.0' x='0.0' y='0.0'> </rect>
<ellipse cx='121.6' cy='127.8' rx='9.7' ry='9.7' class='atom-23'  style='fill:#FF7F7F;fill-rule:evenodd;stroke:#FF7F7F;stroke-width:1.0px;stroke-linecap:butt;stroke-linejoin:miter;stroke-opacity:1' />
<path class='bond-0 atom-0 atom-1' d='M 112.5,85.4 L 133.7,97.6' style='fill:none;fill-rule:evenodd;stroke:#000000;stroke-width:2.0px;stroke-linecap:butt;stroke-linejoin:miter;stroke-opacity:1' />
<path class='bond-1 atom-1 atom-2' d='M 143.6,94.7 L 153.7,72.0' style='fill:none;fill-rule:evenodd;stroke:#000000;stroke-width:2.0px;stroke-linecap:butt;stroke-linejoin:miter;stroke-opacity:1' />
<path class='bond-2 atom-2 atom-3' d='M 153.7,72.0 L 186.0,68.6' style='fill:none;fill-rule:evenodd;stroke:#000000;stroke-width:2.0px;stroke-linecap:butt;stroke-linejoin:miter;stroke-opacity:1' />
<path class='bond-2 atom-2 atom-3' d='M 156.0,66.9 L 182.7,64.1' style='fill:none;fill-rule:evenodd;stroke:#000000;stroke-width:2.0px;stroke-linecap:butt;stroke-linejoin:miter;stroke-opacity:1' />
<path class='bond-3 atom-3 atom-4' d='M 186.0,68.6 L 199.1,39.0' style='fill:none;fill-rule:evenodd;stroke:#000000;stroke-width:2.0px;stroke-linecap:butt;stroke-linejoin:miter;stroke-opacity:1' />
<path class='bond-4 atom-4 atom-5' d='M 199.1,39.0 L 180.0,12.8' style='fill:none;fill-rule:evenodd;stroke:#000000;stroke-width:2.0px;stroke-linecap:butt;stroke-linejoin:miter;stroke-opacity:1' />
<path class='bond-4 atom-4 atom-5' d='M 193.5,39.6 L 177.8,17.9' style='fill:none;fill-rule:evenodd;stroke:#000000;stroke-width:2.0px;stroke-linecap:butt;stroke-linejoin:miter;stroke-opacity:1' />
<path class='bond-5 atom-5 atom-6' d='M 180.0,12.8 L 147.8,16.2' style='fill:none;fill-rule:evenodd;stroke:#000000;stroke-width:2.0px;stroke-linecap:butt;stroke-linejoin:miter;stroke-opacity:1' />
<path class='bond-6 atom-6 atom-7' d='M 147.8,16.2 L 134.7,45.8' style='fill:none;fill-rule:evenodd;stroke:#000000;stroke-width:2.0px;stroke-linecap:butt;stroke-linejoin:miter;stroke-opacity:1' />
<path class='bond-6 atom-6 atom-7' d='M 151.1,20.7 L 140.3,45.2' style='fill:none;fill-rule:evenodd;stroke:#000000;stroke-width:2.0px;stroke-linecap:butt;stroke-linejoin:miter;stroke-opacity:1' />
<path class='bond-7 atom-1 atom-8' d='M 147.5,103.9 L 171.4,111.6' style='fill:none;fill-rule:evenodd;stroke:#000000;stroke-width:2.0px;stroke-linecap:butt;stroke-linejoin:miter;stroke-opacity:1' />
<path class='bond-8 atom-8 atom-9' d='M 171.4,111.6 L 171.4,144.0' style='fill:none;fill-rule:evenodd;stroke:#000000;stroke-width:2.0px;stroke-linecap:butt;stroke-linejoin:miter;stroke-opacity:1' />
<path class='bond-9 atom-9 atom-10' d='M 171.4,144.0 L 147.5,151.8' style='fill:none;fill-rule:evenodd;stroke:#000000;stroke-width:2.0px;stroke-linecap:butt;stroke-linejoin:miter;stroke-opacity:1' />
<path class='bond-10 atom-10 atom-11' d='M 145.4,164.8 L 153.8,183.6' style='fill:none;fill-rule:evenodd;stroke:#000000;stroke-width:2.0px;stroke-linecap:butt;stroke-linejoin:miter;stroke-opacity:1' />
<path class='bond-11 atom-11 atom-12' d='M 153.8,183.6 L 134.8,209.8' style='fill:none;fill-rule:evenodd;stroke:#000000;stroke-width:2.0px;stroke-linecap:butt;stroke-linejoin:miter;stroke-opacity:1' />
<path class='bond-11 atom-11 atom-12' d='M 156.1,188.7 L 140.4,210.4' style='fill:none;fill-rule:evenodd;stroke:#000000;stroke-width:2.0px;stroke-linecap:butt;stroke-linejoin:miter;stroke-opacity:1' />
<path class='bond-12 atom-12 atom-13' d='M 134.8,209.8 L 148.0,239.4' style='fill:none;fill-rule:evenodd;stroke:#000000;stroke-width:2.0px;stroke-linecap:butt;stroke-linejoin:miter;stroke-opacity:1' />
<path class='bond-13 atom-13 atom-14' d='M 148.0,239.4 L 180.2,242.8' style='fill:none;fill-rule:evenodd;stroke:#000000;stroke-width:2.0px;stroke-linecap:butt;stroke-linejoin:miter;stroke-opacity:1' />
<path class='bond-13 atom-13 atom-14' d='M 151.3,234.9 L 177.9,237.7' style='fill:none;fill-rule:evenodd;stroke:#000000;stroke-width:2.0px;stroke-linecap:butt;stroke-linejoin:miter;stroke-opacity:1' />
<path class='bond-14 atom-14 atom-15' d='M 180.2,242.8 L 199.2,216.6' style='fill:none;fill-rule:evenodd;stroke:#000000;stroke-width:2.0px;stroke-linecap:butt;stroke-linejoin:miter;stroke-opacity:1' />
<path class='bond-15 atom-15 atom-16' d='M 199.2,216.6 L 186.0,187.0' style='fill:none;fill-rule:evenodd;stroke:#000000;stroke-width:2.0px;stroke-linecap:butt;stroke-linejoin:miter;stroke-opacity:1' />
<path class='bond-15 atom-15 atom-16' d='M 193.6,216.0 L 182.7,191.5' style='fill:none;fill-rule:evenodd;stroke:#000000;stroke-width:2.0px;stroke-linecap:butt;stroke-linejoin:miter;stroke-opacity:1' />
<path class='bond-16 atom-10 atom-17' d='M 133.7,158.0 L 112.6,170.3' style='fill:none;fill-rule:evenodd;stroke:#000000;stroke-width:2.0px;stroke-linecap:butt;stroke-linejoin:miter;stroke-opacity:1' />
<path class='bond-17 atom-17 atom-18' d='M 112.6,170.3 L 84.5,154.1' style='fill:none;fill-rule:evenodd;stroke:#000000;stroke-width:2.0px;stroke-linecap:butt;stroke-linejoin:miter;stroke-opacity:1' />
<path class='bond-17 atom-17 atom-18' d='M 107.7,173.1 L 84.5,159.7' style='fill:none;fill-rule:evenodd;stroke:#000000;stroke-width:2.0px;stroke-linecap:butt;stroke-linejoin:miter;stroke-opacity:1' />
<path class='bond-18 atom-18 atom-19' d='M 84.5,154.1 L 56.5,170.3' style='fill:none;fill-rule:evenodd;stroke:#000000;stroke-width:2.0px;stroke-linecap:butt;stroke-linejoin:miter;stroke-opacity:1' />
<path class='bond-19 atom-19 atom-20' d='M 56.5,170.3 L 56.5,202.7' style='fill:none;fill-rule:evenodd;stroke:#000000;stroke-width:2.0px;stroke-linecap:butt;stroke-linejoin:miter;stroke-opacity:1' />
<path class='bond-19 atom-19 atom-20' d='M 61.3,173.1 L 61.3,199.9' style='fill:none;fill-rule:evenodd;stroke:#000000;stroke-width:2.0px;stroke-linecap:butt;stroke-linejoin:miter;stroke-opacity:1' />
<path class='bond-20 atom-20 atom-21' d='M 56.5,202.7 L 84.6,218.9' style='fill:none;fill-rule:evenodd;stroke:#000000;stroke-width:2.0px;stroke-linecap:butt;stroke-linejoin:miter;stroke-opacity:1' />
<path class='bond-21 atom-21 atom-22' d='M 84.6,218.9 L 112.6,202.7' style='fill:none;fill-rule:evenodd;stroke:#000000;stroke-width:2.0px;stroke-linecap:butt;stroke-linejoin:miter;stroke-opacity:1' />
<path class='bond-21 atom-21 atom-22' d='M 84.6,213.3 L 107.7,199.9' style='fill:none;fill-rule:evenodd;stroke:#000000;stroke-width:2.0px;stroke-linecap:butt;stroke-linejoin:miter;stroke-opacity:1' />
<path class='bond-22 atom-0 atom-24' d='M 112.5,85.4 L 112.5,53.0' style='fill:none;fill-rule:evenodd;stroke:#000000;stroke-width:2.0px;stroke-linecap:butt;stroke-linejoin:miter;stroke-opacity:1' />
<path class='bond-22 atom-0 atom-24' d='M 107.7,82.6 L 107.6,55.9' style='fill:none;fill-rule:evenodd;stroke:#000000;stroke-width:2.0px;stroke-linecap:butt;stroke-linejoin:miter;stroke-opacity:1' />
<path class='bond-23 atom-24 atom-25' d='M 112.5,53.0 L 84.4,36.9' style='fill:none;fill-rule:evenodd;stroke:#000000;stroke-width:2.0px;stroke-linecap:butt;stroke-linejoin:miter;stroke-opacity:1' />
<path class='bond-24 atom-25 atom-26' d='M 84.4,36.9 L 56.4,53.1' style='fill:none;fill-rule:evenodd;stroke:#000000;stroke-width:2.0px;stroke-linecap:butt;stroke-linejoin:miter;stroke-opacity:1' />
<path class='bond-24 atom-25 atom-26' d='M 84.4,42.5 L 61.2,55.9' style='fill:none;fill-rule:evenodd;stroke:#000000;stroke-width:2.0px;stroke-linecap:butt;stroke-linejoin:miter;stroke-opacity:1' />
<path class='bond-25 atom-26 atom-27' d='M 56.4,53.1 L 56.4,85.5' style='fill:none;fill-rule:evenodd;stroke:#000000;stroke-width:2.0px;stroke-linecap:butt;stroke-linejoin:miter;stroke-opacity:1' />
<path class='bond-26 atom-27 atom-28' d='M 56.4,85.5 L 84.5,101.7' style='fill:none;fill-rule:evenodd;stroke:#000000;stroke-width:2.0px;stroke-linecap:butt;stroke-linejoin:miter;stroke-opacity:1' />
<path class='bond-26 atom-27 atom-28' d='M 61.3,82.7 L 84.5,96.1' style='fill:none;fill-rule:evenodd;stroke:#000000;stroke-width:2.0px;stroke-linecap:butt;stroke-linejoin:miter;stroke-opacity:1' />
<path class='bond-27 atom-28 atom-0' d='M 84.5,101.7 L 112.5,85.4' style='fill:none;fill-rule:evenodd;stroke:#000000;stroke-width:2.0px;stroke-linecap:butt;stroke-linejoin:miter;stroke-opacity:1' />
<path class='bond-28 atom-7 atom-2' d='M 134.7,45.8 L 153.7,72.0' style='fill:none;fill-rule:evenodd;stroke:#000000;stroke-width:2.0px;stroke-linecap:butt;stroke-linejoin:miter;stroke-opacity:1' />
<path class='bond-29 atom-16 atom-11' d='M 186.0,187.0 L 153.8,183.6' style='fill:none;fill-rule:evenodd;stroke:#000000;stroke-width:2.0px;stroke-linecap:butt;stroke-linejoin:miter;stroke-opacity:1' />
<path class='bond-30 atom-22 atom-17' d='M 112.6,202.7 L 112.6,170.3' style='fill:none;fill-rule:evenodd;stroke:#000000;stroke-width:2.0px;stroke-linecap:butt;stroke-linejoin:miter;stroke-opacity:1' />
<path class='bond-31 atom-10 atom-23' d='M 135.6,147.1 L 128.5,137.3' style='fill:none;fill-rule:evenodd;stroke:#000000;stroke-width:2.0px;stroke-linecap:butt;stroke-linejoin:miter;stroke-opacity:1' />
<path class='bond-32 atom-1 atom-23' d='M 133.7,111.1 L 126.6,120.9' style='fill:none;fill-rule:evenodd;stroke:#000000;stroke-width:2.0px;stroke-linecap:butt;stroke-linejoin:miter;stroke-opacity:1' />
<path d='M 184.3,68.8 L 186.0,68.6 L 186.6,67.1' style='fill:none;stroke:#000000;stroke-width:2.0px;stroke-linecap:butt;stroke-linejoin:miter;stroke-miterlimit:10;stroke-opacity:1;' />
<path d='M 198.4,40.5 L 199.1,39.0 L 198.1,37.7' style='fill:none;stroke:#000000;stroke-width:2.0px;stroke-linecap:butt;stroke-linejoin:miter;stroke-miterlimit:10;stroke-opacity:1;' />
<path d='M 181.0,14.1 L 180.0,12.8 L 178.4,13.0' style='fill:none;stroke:#000000;stroke-width:2.0px;stroke-linecap:butt;stroke-linejoin:miter;stroke-miterlimit:10;stroke-opacity:1;' />
<path d='M 149.4,16.0 L 147.8,16.2 L 147.2,17.7' style='fill:none;stroke:#000000;stroke-width:2.0px;stroke-linecap:butt;stroke-linejoin:miter;stroke-miterlimit:10;stroke-opacity:1;' />
<path d='M 135.3,44.3 L 134.7,45.8 L 135.6,47.1' style='fill:none;stroke:#000000;stroke-width:2.0px;stroke-linecap:butt;stroke-linejoin:miter;stroke-miterlimit:10;stroke-opacity:1;' />
<path d='M 170.2,111.2 L 171.4,111.6 L 171.4,113.2' style='fill:none;stroke:#000000;stroke-width:2.0px;stroke-linecap:butt;stroke-linejoin:miter;stroke-miterlimit:10;stroke-opacity:1;' />
<path d='M 171.4,142.4 L 171.4,144.0 L 170.2,144.4' style='fill:none;stroke:#000000;stroke-width:2.0px;stroke-linecap:butt;stroke-linejoin:miter;stroke-miterlimit:10;stroke-opacity:1;' />
<path d='M 135.7,208.5 L 134.8,209.8 L 135.4,211.3' style='fill:none;stroke:#000000;stroke-width:2.0px;stroke-linecap:butt;stroke-linejoin:miter;stroke-miterlimit:10;stroke-opacity:1;' />
<path d='M 147.3,238.0 L 148.0,239.4 L 149.6,239.6' style='fill:none;stroke:#000000;stroke-width:2.0px;stroke-linecap:butt;stroke-linejoin:miter;stroke-miterlimit:10;stroke-opacity:1;' />
<path d='M 178.6,242.6 L 180.2,242.8 L 181.1,241.5' style='fill:none;stroke:#000000;stroke-width:2.0px;stroke-linecap:butt;stroke-linejoin:miter;stroke-miterlimit:10;stroke-opacity:1;' />
<path d='M 198.3,217.9 L 199.2,216.6 L 198.6,215.1' style='fill:none;stroke:#000000;stroke-width:2.0px;stroke-linecap:butt;stroke-linejoin:miter;stroke-miterlimit:10;stroke-opacity:1;' />
<path d='M 186.7,188.5 L 186.0,187.0 L 184.4,186.8' style='fill:none;stroke:#000000;stroke-width:2.0px;stroke-linecap:butt;stroke-linejoin:miter;stroke-miterlimit:10;stroke-opacity:1;' />
<path d='M 85.9,154.9 L 84.5,154.1 L 83.1,154.9' style='fill:none;stroke:#000000;stroke-width:2.0px;stroke-linecap:butt;stroke-linejoin:miter;stroke-miterlimit:10;stroke-opacity:1;' />
<path d='M 57.9,169.5 L 56.5,170.3 L 56.5,171.9' style='fill:none;stroke:#000000;stroke-width:2.0px;stroke-linecap:butt;stroke-linejoin:miter;stroke-miterlimit:10;stroke-opacity:1;' />
<path d='M 56.5,201.1 L 56.5,202.7 L 57.9,203.5' style='fill:none;stroke:#000000;stroke-width:2.0px;stroke-linecap:butt;stroke-linejoin:miter;stroke-miterlimit:10;stroke-opacity:1;' />
<path d='M 83.2,218.1 L 84.6,218.9 L 86.0,218.1' style='fill:none;stroke:#000000;stroke-width:2.0px;stroke-linecap:butt;stroke-linejoin:miter;stroke-miterlimit:10;stroke-opacity:1;' />
<path d='M 111.2,203.5 L 112.6,202.7 L 112.6,201.0' style='fill:none;stroke:#000000;stroke-width:2.0px;stroke-linecap:butt;stroke-linejoin:miter;stroke-miterlimit:10;stroke-opacity:1;' />
<path d='M 112.5,54.7 L 112.5,53.0 L 111.1,52.2' style='fill:none;stroke:#000000;stroke-width:2.0px;stroke-linecap:butt;stroke-linejoin:miter;stroke-miterlimit:10;stroke-opacity:1;' />
<path d='M 85.8,37.7 L 84.4,36.9 L 83.0,37.7' style='fill:none;stroke:#000000;stroke-width:2.0px;stroke-linecap:butt;stroke-linejoin:miter;stroke-miterlimit:10;stroke-opacity:1;' />
<path d='M 57.8,52.3 L 56.4,53.1 L 56.4,54.7' style='fill:none;stroke:#000000;stroke-width:2.0px;stroke-linecap:butt;stroke-linejoin:miter;stroke-miterlimit:10;stroke-opacity:1;' />
<path d='M 56.4,83.9 L 56.4,85.5 L 57.8,86.3' style='fill:none;stroke:#000000;stroke-width:2.0px;stroke-linecap:butt;stroke-linejoin:miter;stroke-miterlimit:10;stroke-opacity:1;' />
<path d='M 83.1,100.9 L 84.5,101.7 L 85.9,100.9' style='fill:none;stroke:#000000;stroke-width:2.0px;stroke-linecap:butt;stroke-linejoin:miter;stroke-miterlimit:10;stroke-opacity:1;' />
<text x='134.7' y='111.3' class='atom-1' style='font-size:19px;font-style:normal;font-weight:normal;fill-opacity:1;stroke:none;font-family:sans-serif;text-anchor:start;fill:#000000' >P</text>
<text x='134.8' y='163.8' class='atom-10' style='font-size:19px;font-style:normal;font-weight:normal;fill-opacity:1;stroke:none;font-family:sans-serif;text-anchor:start;fill:#000000' >P</text>
<text x='115.7' y='137.6' class='atom-23' style='font-size:19px;font-style:normal;font-weight:normal;fill-opacity:1;stroke:none;font-family:sans-serif;text-anchor:start;fill:#000000' ></text>
</svg>
